Simply-Orange-Circles/scalable/apps/winemine.svg

<svg xmlns="http://www.w3.org/2000/svg" width="48" height="48" viewBox="0 0 12.7 12.7"><path d="M6.34.08A6.27 6.27 0 0 0 .08 6.34a6.27 6.27 0 0 0 6.26 6.27 6.27 6.27 0 0 0 6.27-6.27A6.27 6.27 0 0 0 6.34.08zM6.33 1A5.39 5.39 0 0 1 11.7 6.4a5.39 5.39 0 0 1-5.38 5.39 5.39 5.39 0 0 1-5.4-5.4 5.39 5.39 0 0 1 5.4-5.38zM5.9 2.1l-.1 1.27a3.02 3.02 0 0 0-1.17.48l-.95-.83-.65.65.83.95a3.02 3.02 0 0 0-.48 1.18l-1.26.09v.9l1.26.1a3.02 3.02 0 0 0 .48 1.17l-.83.95.65.64.95-.82a3.02 3.02 0 0 0 1.18.48l.09 1.26h.9l.06-.78a2.12 2.12 0 0 1-.03-.04 2.12 2.12 0 0 1-.13-.17 2.12 2.12 0 0 1-.11-.18 2.12 2.12 0 0 1-.1-.19 2.12 2.12 0 0 1-.07-.2 2.12 2.12 0 0 1-.05-.2 2.12 2.12 0 0 1-.03-.21 2.12 2.12 0 0 1-.01-.21 2.12 2.12 0 0 1 0-.15 2.12 2.12 0 0 1 .03-.21 2.12 2.12 0 0 1 .05-.2 2.12 2.12 0 0 1 .06-.2 2.12 2.12 0 0 1 .09-.2 2.12 2.12 0 0 1 .1-.19 2.12 2.12 0 0 1 .13-.17 2.12 2.12 0 0 1 .14-.16 2.12 2.12 0 0 1 .15-.14 2.12 2.12 0 0 1 .17-.13 2.12 2.12 0 0 1 .18-.11 2.12 2.12 0 0 1 .2-.1 2.12 2.12 0 0 1 .2-.06 2.12 2.12 0 0 1 .2-.06 2.12 2.12 0 0 1 .2-.03 2.12 2.12 0 0 1 .22 0 2.12 2.12 0 0 1 .15 0 2.12 2.12 0 0 1 .2.02 2.12 2.12 0 0 1 .21.05 2.12 2.12 0 0 1 .2.06 2.12 2.12 0 0 1 .2.1 2.12 2.12 0 0 1 .18.1 2.12 2.12 0 0 1 .17.12 2.12 2.12 0 0 1 .13.11l.7-.05v-.9l-1.27-.1a3.02 3.02 0 0 0-.48-1.17l.83-.95-.65-.65-.95.83a3.02 3.02 0 0 0-1.18-.48L6.8 2.12h-.9zM5.78 4.4a1.06 1.06 0 0 1 1.05 1.06 1.06 1.06 0 0 1-1.05 1.06 1.06 1.06 0 0 1-1.06-1.06 1.06 1.06 0 0 1 1.06-1.06zm2.67 2.16A1.85 1.85 0 0 0 6.59 8.4a1.85 1.85 0 0 0 1.86 1.85A1.85 1.85 0 0 0 10.3 8.4a1.85 1.85 0 0 0-1.85-1.85zm-1 .79h.76-.76zm.13.13h.66c.03 0 .05.03.05.06v.66c0 .03-.02.05-.05.05h-.66a.05.05 0 0 1-.06-.05v-.66c0-.03.02-.06.06-.06zm1.08 0h.66c.03 0 .05.03.05.06v.66c0 .03-.02.05-.05.05h-.66a.06.06 0 0 1-.06-.05v-.66c0-.03.03-.06.06-.06zM7.58 8.55h.66c.03 0 .05.03.05.06v.66c0 .03-.02.05-.05.05h-.66a.05.05 0 0 1-.06-.05V8.6c0-.03.02-.06.06-.06zm1.08 0h.66c.03 0 .05.03.05.06v.66c0 .03-.02.05-.05.05h-.66a.05.05 0 0 1-.06-.05V8.6c0-.03.03-.06.06-.06z" fill="#ff7f2a"/></svg>

<?xml version="1.0" encoding="UTF-8" standalone="no"?>
<svg
   xmlns:dc="http://purl.org/dc/elements/1.1/"
   xmlns:cc="http://creativecommons.org/ns#"
   xmlns:rdf="http://www.w3.org/1999/02/22-rdf-syntax-ns#"
   xmlns:svg="http://www.w3.org/2000/svg"
   xmlns="http://www.w3.org/2000/svg"
   xmlns:sodipodi="http://sodipodi.sourceforge.net/DTD/sodipodi-0.dtd"
   xmlns:inkscape="http://www.inkscape.org/namespaces/inkscape"
   width="48"
   height="48"
   viewBox="0 0 12.7 12.7"
   version="1.1"
   id="svg4"
   sodipodi:docname="winemine.svg"
   inkscape:version="0.92.4 (5da689c313, 2019-01-14)">
  <metadata
     id="metadata10">
    <rdf:RDF>
      <cc:Work
         rdf:about="">
        <dc:format>image/svg+xml</dc:format>
        <dc:type
           rdf:resource="http://purl.org/dc/dcmitype/StillImage" />
        <dc:title></dc:title>
      </cc:Work>
    </rdf:RDF>
  </metadata>
  <defs
     id="defs8" />
  <sodipodi:namedview
     pagecolor="#ffffff"
     bordercolor="#666666"
     borderopacity="1"
     objecttolerance="10"
     gridtolerance="10"
     guidetolerance="10"
     inkscape:pageopacity="0"
     inkscape:pageshadow="2"
     inkscape:window-width="1087"
     inkscape:window-height="480"
     id="namedview6"
     showgrid="false"
     inkscape:zoom="4.9166667"
     inkscape:cx="2.1355932"
     inkscape:cy="24"
     inkscape:window-x="0"
     inkscape:window-y="25"
     inkscape:window-maximized="0"
     inkscape:current-layer="svg4" />
  <path
     d="M 6.34,0.08 A 6.27,6.27 0 0 0 0.08,6.34 6.27,6.27 0 0 0 6.34,12.61 6.27,6.27 0 0 0 12.61,6.34 6.27,6.27 0 0 0 6.34,0.08 Z M 6.33,1 A 5.39,5.39 0 0 1 11.7,6.4 5.39,5.39 0 0 1 6.32,11.79 5.39,5.39 0 0 1 0.92,6.39 5.39,5.39 0 0 1 6.32,1.01 Z M 5.9,2.1 5.8,3.37 A 3.02,3.02 0 0 0 4.63,3.85 L 3.68,3.02 3.03,3.67 3.86,4.62 A 3.02,3.02 0 0 0 3.38,5.8 L 2.12,5.89 v 0.9 l 1.26,0.1 A 3.02,3.02 0 0 0 3.86,8.06 L 3.03,9.01 3.68,9.65 4.63,8.83 A 3.02,3.02 0 0 0 5.81,9.31 L 5.9,10.57 H 6.8 L 6.86,9.79 A 2.12,2.12 0 0 1 6.83,9.75 2.12,2.12 0 0 1 6.7,9.58 2.12,2.12 0 0 1 6.59,9.4 2.12,2.12 0 0 1 6.49,9.21 2.12,2.12 0 0 1 6.42,9.01 2.12,2.12 0 0 1 6.37,8.81 2.12,2.12 0 0 1 6.34,8.6 2.12,2.12 0 0 1 6.33,8.39 2.12,2.12 0 0 1 6.33,8.24 2.12,2.12 0 0 1 6.36,8.03 2.12,2.12 0 0 1 6.41,7.83 2.12,2.12 0 0 1 6.47,7.63 2.12,2.12 0 0 1 6.56,7.43 2.12,2.12 0 0 1 6.66,7.24 2.12,2.12 0 0 1 6.79,7.07 2.12,2.12 0 0 1 6.93,6.91 2.12,2.12 0 0 1 7.08,6.77 2.12,2.12 0 0 1 7.25,6.64 2.12,2.12 0 0 1 7.43,6.53 a 2.12,2.12 0 0 1 0.2,-0.1 2.12,2.12 0 0 1 0.2,-0.06 2.12,2.12 0 0 1 0.2,-0.06 2.12,2.12 0 0 1 0.2,-0.03 2.12,2.12 0 0 1 0.22,0 2.12,2.12 0 0 1 0.15,0 2.12,2.12 0 0 1 0.2,0.02 2.12,2.12 0 0 1 0.21,0.05 2.12,2.12 0 0 1 0.2,0.06 2.12,2.12 0 0 1 0.2,0.1 2.12,2.12 0 0 1 0.18,0.1 2.12,2.12 0 0 1 0.17,0.12 2.12,2.12 0 0 1 0.13,0.11 l 0.7,-0.05 V 5.89 L 9.32,5.79 A 3.02,3.02 0 0 0 8.84,4.62 L 9.67,3.67 9.02,3.02 8.07,3.85 A 3.02,3.02 0 0 0 6.89,3.37 L 6.8,2.12 H 5.9 Z M 5.78,4.4 A 1.06,1.06 0 0 1 6.83,5.46 1.06,1.06 0 0 1 5.78,6.52 1.06,1.06 0 0 1 4.72,5.46 1.06,1.06 0 0 1 5.78,4.4 Z M 8.45,6.56 A 1.85,1.85 0 0 0 6.59,8.4 1.85,1.85 0 0 0 8.45,10.25 1.85,1.85 0 0 0 10.3,8.4 1.85,1.85 0 0 0 8.45,6.55 Z m -1,0.79 h 0.76 z m 0.13,0.13 h 0.66 c 0.03,0 0.05,0.03 0.05,0.06 V 8.2 c 0,0.03 -0.02,0.05 -0.05,0.05 H 7.58 A 0.05,0.05 0 0 1 7.52,8.2 V 7.54 c 0,-0.03 0.02,-0.06 0.06,-0.06 z m 1.08,0 h 0.66 c 0.03,0 0.05,0.03 0.05,0.06 V 8.2 c 0,0.03 -0.02,0.05 -0.05,0.05 H 8.66 A 0.06,0.06 0 0 1 8.6,8.2 V 7.54 C 8.6,7.51 8.63,7.48 8.66,7.48 Z M 7.58,8.55 h 0.66 c 0.03,0 0.05,0.03 0.05,0.06 V 9.27 C 8.29,9.3 8.27,9.32 8.24,9.32 H 7.58 A 0.05,0.05 0 0 1 7.52,9.27 V 8.6 c 0,-0.03 0.02,-0.06 0.06,-0.06 z m 1.08,0 h 0.66 c 0.03,0 0.05,0.03 0.05,0.06 V 9.27 C 9.37,9.3 9.35,9.32 9.32,9.32 H 8.66 A 0.05,0.05 0 0 1 8.6,9.27 V 8.6 C 8.6,8.57 8.63,8.54 8.66,8.54 Z"
     id="path2"
     inkscape:connector-curvature="0"
     style="fill:#ff7f2a" />
</svg>
